apps/scalable/gnome-tweaks.svg

<svg xmlns="http://www.w3.org/2000/svg" style="isolation:isolate" width="256" height="256"><defs><filter id="a" width="270.648" height="254.338" x="-7.32" y="2.95" filterUnits="userSpaceOnUse"><feGaussianBlur xmlns="http://www.w3.org/2000/svg" in="SourceGraphic" stdDeviation="4.294"/><feOffset xmlns="http://www.w3.org/2000/svg" dy="4" result="pf_100_offsetBlur"/><feFlood xmlns="http://www.w3.org/2000/svg" flood-opacity=".4"/><feComposite xmlns="http://www.w3.org/2000/svg" in2="pf_100_offsetBlur" operator="in" result="pf_100_dropShadow"/><feBlend xmlns="http://www.w3.org/2000/svg" in="SourceGraphic" in2="pf_100_dropShadow"/></filter></defs><g filter="url(#a)"><linearGradient id="b" x1=".233" x2=".933" y1="-.071" y2=".995" gradientTransform="matrix(244.648 0 0 228.338 5.676 11.947)" gradientUnits="userSpaceOnUse"><stop offset="0%" stop-color="#e8e8e8"/><stop offset="100%" stop-color="#f5f5f5"/></linearGradient><path fill="url(#b)" d="M165.685 11.947c74.055 0 84.639 10.557 84.639 84.544v59.251c0 73.986-10.584 84.543-84.639 84.543h-75.37c-74.055 0-84.639-10.557-84.639-84.543V96.491c0-73.987 10.584-84.544 84.639-84.544h75.37z"/></g><path fill="#FFF" d="M71.392 61.731c-5.005-.063-9.462.936-12.351 4.404-2.678 3.199-3.451 7.331-3.451 12.116v24.893c0 4.785.773 8.918 3.451 12.116 2.921 3.505 7.347 4.403 12.286 4.403h113.346c4.939 0 9.37-.892 12.296-4.403 2.682-3.205 3.441-7.337 3.441-12.116V78.251c0-4.779-.758-8.911-3.441-12.116-2.926-3.512-7.357-4.404-12.296-4.404H71.392zM184.608 134.15c5.005-.064 9.462.935 12.351 4.403 2.678 3.2 3.451 7.332 3.451 12.117v24.892c0 4.786-.773 8.918-3.451 12.116-2.921 3.506-7.347 4.404-12.286 4.404H71.327c-4.939 0-9.37-.892-12.296-4.404-2.682-3.205-3.441-7.337-3.441-12.116V150.67c0-4.779.758-8.912 3.441-12.117 2.926-3.512 7.357-4.403 12.296-4.403h113.281z" opacity=".6"/><path fill="#FDA463" d="M184.608 59.921c5.005-.063 9.462.935 12.351 4.403 2.678 3.199 3.451 7.332 3.451 12.117v24.892c0 4.786-.773 8.918-3.451 12.116-2.921 3.506-7.347 4.404-12.286 4.404H71.327c-4.939 0-9.37-.891-12.296-4.404-2.682-3.204-3.441-7.336-3.441-12.116V76.441c0-4.78.758-8.912 3.441-12.117 2.926-3.512 7.357-4.403 12.296-4.403h113.281z"/><path d="M183.354 68.972c3.831-.048 6.402.812 7.722 2.398 1.387 1.651 2.101 4.36 2.101 8.126v22.403c0 3.765-.714 6.474-2.101 8.125-1.32 1.585-3.891 2.398-7.722 2.398h-38.291c-3.83 0-6.408-.813-7.73-2.398-1.387-1.651-2.093-4.36-2.093-8.125V79.496c0-3.766.706-6.475 2.093-8.126 1.322-1.586 3.9-2.398 7.73-2.398h38.291z" opacity=".2"/><path fill="#FFF" d="M183.354 67.162c3.831-.048 6.402.812 7.722 2.397 1.387 1.652 2.101 4.361 2.101 8.126v22.403c0 3.765-.714 6.474-2.101 8.126-1.32 1.586-3.891 2.397-7.722 2.397h-38.291c-3.83 0-6.408-.811-7.73-2.397-1.387-1.652-2.093-4.361-2.093-8.126V77.685c0-3.765.706-6.474 2.093-8.126 1.322-1.585 3.9-2.397 7.73-2.397h38.291z"/><path fill="#B3B3B3" d="M71.392 132.34c-5.005-.063-9.462.935-12.351 4.403-2.678 3.199-3.451 7.331-3.451 12.116v24.893c0 4.785.773 8.917 3.451 12.116 2.921 3.506 7.347 4.403 12.286 4.403h113.346c4.939 0 9.37-.891 12.296-4.403 2.682-3.205 3.441-7.337 3.441-12.116v-24.893c0-4.779-.758-8.911-3.441-12.116-2.926-3.512-7.357-4.403-12.296-4.403H71.392z"/><path d="M72.646 141.391c-3.831-.048-6.401.812-7.722 2.397-1.387 1.652-2.1 4.36-2.1 8.126v22.403c0 3.766.713 6.475 2.1 8.125 1.321 1.586 3.891 2.398 7.722 2.398h38.291c3.83 0 6.408-.812 7.73-2.398 1.387-1.65 2.093-4.359 2.093-8.125v-22.403c0-3.766-.706-6.474-2.093-8.126-1.322-1.585-3.9-2.397-7.73-2.397H72.646z" opacity=".2"/><path fill="#FFF" d="M72.646 139.581c-3.831-.049-6.401.811-7.722 2.397-1.387 1.651-2.101 4.36-2.101 8.125v22.404c0 3.765.714 6.474 2.101 8.126 1.321 1.585 3.891 2.396 7.722 2.396h38.291c3.83 0 6.408-.811 7.73-2.396 1.387-1.652 2.093-4.361 2.093-8.126v-22.404c0-3.765-.706-6.474-2.093-8.125-1.322-1.586-3.9-2.397-7.73-2.397H72.646z"/><path d="M71.393 59.922c-5.006-.063-9.462.934-12.351 4.402-2.678 3.199-3.451 7.331-3.451 12.117v.905c0-4.785.773-8.918 3.451-12.117 2.889-3.468 7.345-4.465 12.351-4.402h113.279c4.939 0 9.371.89 12.297 4.402 2.683 3.205 3.44 7.337 3.44 12.117v-.905c0-4.78-.757-8.912-3.44-12.117-2.926-3.512-7.358-4.402-12.297-4.402H71.393zM71.393 132.341c-5.006-.063-9.462.933-12.351 4.402-2.678 3.199-3.451 7.331-3.451 12.116v.905c0-4.785.773-8.917 3.451-12.117 2.889-3.467 7.345-4.465 12.351-4.401h113.279c4.939 0 9.371.89 12.297 4.401 2.683 3.206 3.44 7.338 3.44 12.117v-.905c0-4.779-.757-8.912-3.44-12.116-2.926-3.513-7.358-4.402-12.297-4.402H71.393z" opacity=".1"/><g opacity=".05"><path fill="#FFF" d="M8.476 55.74C6.729 66.667 6.158 80.255 6.158 97.205v59.251c0 73.986 10.584 84.544 84.64 84.544h75.369c55.135 0 75.078-5.874 81.675-39.397L8.476 55.74z"/></g><g opacity=".4"><linearGradient id="c" x1=".517" x2=".517" y2="1"><stop offset="0%" stop-color="#fff"/><stop offset="12.5%" stop-opacity=".098" stop-color="#fff"/><stop offset="92.5%" stop-opacity=".098"/><stop offset="100%" stop-opacity=".498"/></linearGradient><path fill="none" stroke="url(#c)" stroke-linecap="round" stroke-linejoin="round" stroke-width="4.077" d="M165.685 11.947c74.055 0 84.639 10.557 84.639 84.544v59.251c0 73.986-10.584 84.543-84.639 84.543h-75.37c-74.055 0-84.639-10.557-84.639-84.543V96.491c0-73.987 10.584-84.544 84.639-84.544h75.37z" vector-effect="non-scaling-stroke"/></g></svg>

<svg xmlns="http://www.w3.org/2000/svg" style="isolation:isolate" width="256" height="256" viewBox="0 0 256 256">
 <defs>
  <filter id="gOOL0RhZdVzWdnjGpRXgEWc01xnpSW7R" width="270.648" height="254.338" x="-7.32" y="2.95" filterUnits="userSpaceOnUse">
   <feGaussianBlur xmlns="http://www.w3.org/2000/svg" in="SourceGraphic" stdDeviation="4.294"/>
   <feOffset xmlns="http://www.w3.org/2000/svg" dx="0" dy="4" result="pf_100_offsetBlur"/>
   <feFlood xmlns="http://www.w3.org/2000/svg" flood-opacity=".4"/>
   <feComposite xmlns="http://www.w3.org/2000/svg" in2="pf_100_offsetBlur" operator="in" result="pf_100_dropShadow"/>
   <feBlend xmlns="http://www.w3.org/2000/svg" in="SourceGraphic" in2="pf_100_dropShadow" mode="normal"/>
  </filter>
 </defs>
 <g filter="url(#gOOL0RhZdVzWdnjGpRXgEWc01xnpSW7R)">
  <linearGradient id="_lgradient_250" x1=".233" x2=".933" y1="-.071" y2=".995" gradientTransform="matrix(244.648,0,0,228.338,5.676,11.947)" gradientUnits="userSpaceOnUse">
   <stop offset="0%" style="stop-color:rgb(232,232,232)"/>
   <stop offset="100%" style="stop-color:rgb(245,245,245)"/>
  </linearGradient>
  <path fill="url(#_lgradient_250)" d="M 165.685 11.947 C 239.74 11.947 250.324 22.504 250.324 96.491 L 250.324 155.742 C 250.324 229.728 239.74 240.285 165.685 240.285 L 90.315 240.285 C 16.26 240.285 5.676 229.728 5.676 155.742 L 5.676 96.491 C 5.676 22.504 16.26 11.947 90.315 11.947 L 165.685 11.947 Z"/>
 </g>
 <g>
  <g opacity=".6">
   <path fill="#FFFFFF" d="M 71.392 61.731 C 66.387 61.668 61.93 62.667 59.041 66.135 C 56.363 69.334 55.59 73.466 55.59 78.251 L 55.59 103.144 C 55.59 107.929 56.363 112.062 59.041 115.26 C 61.962 118.765 66.388 119.663 71.327 119.663 L 184.673 119.663 C 189.612 119.663 194.043 118.771 196.969 115.26 C 199.651 112.055 200.41 107.923 200.41 103.144 L 200.41 78.251 C 200.41 73.472 199.652 69.34 196.969 66.135 C 194.043 62.623 189.612 61.731 184.673 61.731 L 71.392 61.731 Z"/>
  </g>
  <g opacity=".6">
   <path fill="#FFFFFF" d="M 184.608 134.15 C 189.613 134.086 194.07 135.085 196.959 138.553 C 199.637 141.753 200.41 145.885 200.41 150.67 L 200.41 175.562 C 200.41 180.348 199.637 184.48 196.959 187.678 C 194.038 191.184 189.612 192.082 184.673 192.082 L 71.327 192.082 C 66.388 192.082 61.957 191.19 59.031 187.678 C 56.349 184.473 55.59 180.341 55.59 175.562 L 55.59 150.67 C 55.59 145.891 56.348 141.758 59.031 138.553 C 61.957 135.041 66.388 134.15 71.327 134.15 L 184.608 134.15 Z"/>
  </g>
  <path fill="#FDA463" d="M 184.608 59.921 C 189.613 59.858 194.07 60.856 196.959 64.324 C 199.637 67.523 200.41 71.656 200.41 76.441 L 200.41 101.333 C 200.41 106.119 199.637 110.251 196.959 113.449 C 194.038 116.955 189.612 117.853 184.673 117.853 L 71.327 117.853 C 66.388 117.853 61.957 116.962 59.031 113.449 C 56.349 110.245 55.59 106.113 55.59 101.333 L 55.59 76.441 C 55.59 71.661 56.348 67.529 59.031 64.324 C 61.957 60.812 66.388 59.921 71.327 59.921 L 184.608 59.921 Z"/>
  <g opacity=".2">
   <path d="M 183.354 68.972 C 187.185 68.924 189.756 69.784 191.076 71.37 C 192.463 73.021 193.177 75.73 193.177 79.496 L 193.177 101.899 C 193.177 105.664 192.463 108.373 191.076 110.024 C 189.756 111.609 187.185 112.422 183.354 112.422 L 145.063 112.422 C 141.233 112.422 138.655 111.609 137.333 110.024 C 135.946 108.373 135.24 105.664 135.24 101.899 L 135.24 79.496 C 135.24 75.73 135.946 73.021 137.333 71.37 C 138.655 69.784 141.233 68.972 145.063 68.972 L 183.354 68.972 Z"/>
  </g>
  <path fill="#FFFFFF" d="M 183.354 67.162 C 187.185 67.114 189.756 67.974 191.076 69.559 C 192.463 71.211 193.177 73.92 193.177 77.685 L 193.177 100.088 C 193.177 103.853 192.463 106.562 191.076 108.214 C 189.756 109.8 187.185 110.611 183.354 110.611 L 145.063 110.611 C 141.233 110.611 138.655 109.8 137.333 108.214 C 135.946 106.562 135.24 103.853 135.24 100.088 L 135.24 77.685 C 135.24 73.92 135.946 71.211 137.333 69.559 C 138.655 67.974 141.233 67.162 145.063 67.162 L 183.354 67.162 Z"/>
  <path fill="#B3B3B3" d="M 71.392 132.34 C 66.387 132.277 61.93 133.275 59.041 136.743 C 56.363 139.942 55.59 144.074 55.59 148.859 L 55.59 173.752 C 55.59 178.537 56.363 182.669 59.041 185.868 C 61.962 189.374 66.388 190.271 71.327 190.271 L 184.673 190.271 C 189.612 190.271 194.043 189.38 196.969 185.868 C 199.651 182.663 200.41 178.531 200.41 173.752 L 200.41 148.859 C 200.41 144.08 199.652 139.948 196.969 136.743 C 194.043 133.231 189.612 132.34 184.673 132.34 L 71.392 132.34 Z"/>
  <g opacity=".2">
   <path d="M 72.646 141.391 C 68.815 141.343 66.245 142.203 64.924 143.788 C 63.537 145.44 62.824 148.148 62.824 151.914 L 62.824 174.317 C 62.824 178.083 63.537 180.792 64.924 182.442 C 66.245 184.028 68.815 184.84 72.646 184.84 L 110.937 184.84 C 114.767 184.84 117.345 184.028 118.667 182.442 C 120.054 180.792 120.76 178.083 120.76 174.317 L 120.76 151.914 C 120.76 148.148 120.054 145.44 118.667 143.788 C 117.345 142.203 114.767 141.391 110.937 141.391 L 72.646 141.391 Z"/>
  </g>
  <path fill="#FFFFFF" d="M 72.646 139.581 C 68.815 139.532 66.245 140.392 64.924 141.978 C 63.537 143.629 62.823 146.338 62.823 150.103 L 62.823 172.507 C 62.823 176.272 63.537 178.981 64.924 180.633 C 66.245 182.218 68.815 183.029 72.646 183.029 L 110.937 183.029 C 114.767 183.029 117.345 182.218 118.667 180.633 C 120.054 178.981 120.76 176.272 120.76 172.507 L 120.76 150.103 C 120.76 146.338 120.054 143.629 118.667 141.978 C 117.345 140.392 114.767 139.581 110.937 139.581 L 72.646 139.581 Z"/>
  <g opacity=".1">
   <path d="M 71.393 59.922 C 66.387 59.859 61.931 60.856 59.042 64.324 C 56.364 67.523 55.591 71.655 55.591 76.441 L 55.591 77.346 C 55.591 72.561 56.364 68.428 59.042 65.229 C 61.931 61.761 66.387 60.764 71.393 60.827 L 184.672 60.827 C 189.611 60.827 194.043 61.717 196.969 65.229 C 199.652 68.434 200.409 72.566 200.409 77.346 L 200.409 76.441 C 200.409 71.661 199.652 67.529 196.969 64.324 C 194.043 60.812 189.611 59.922 184.672 59.922 L 71.393 59.922 Z"/>
  </g>
  <g opacity=".1">
   <path d="M 71.393 132.341 C 66.387 132.278 61.931 133.274 59.042 136.743 C 56.364 139.942 55.591 144.074 55.591 148.859 L 55.591 149.764 C 55.591 144.979 56.364 140.847 59.042 137.647 C 61.931 134.18 66.387 133.182 71.393 133.246 L 184.672 133.246 C 189.611 133.246 194.043 134.136 196.969 137.647 C 199.652 140.853 200.409 144.985 200.409 149.764 L 200.409 148.859 C 200.409 144.08 199.652 139.947 196.969 136.743 C 194.043 133.23 189.611 132.341 184.672 132.341 L 71.393 132.341 Z"/>
  </g>
 </g>
 <g opacity=".05">
  <path fill="#FFFFFF" d="M 8.476 55.74 C 6.729 66.667 6.158 80.255 6.158 97.205 L 6.158 156.456 C 6.158 230.442 16.742 241 90.798 241 L 166.167 241 C 221.302 241 241.245 235.126 247.842 201.603 L 8.476 55.74 Z"/>
 </g>
 <g opacity=".4">
  <linearGradient id="_lgradient_251" x1=".517" x2=".517" y1="0" y2="1">
   <stop offset="0%" style="stop-color:rgb(255,255,255)"/>
   <stop offset="12.5%" stop-opacity=".098" style="stop-color:rgb(255,255,255)"/>
   <stop offset="92.5%" stop-opacity=".098" style="stop-color:rgb(0,0,0)"/>
   <stop offset="100%" stop-opacity=".498" style="stop-color:rgb(0,0,0)"/>
  </linearGradient>
  <path fill="none" stroke="url(#_lgradient_251)" stroke-linecap="round" stroke-linejoin="round" stroke-width="4.077" d="M 165.685 11.947 C 239.74 11.947 250.324 22.504 250.324 96.491 L 250.324 155.742 C 250.324 229.728 239.74 240.285 165.685 240.285 L 90.315 240.285 C 16.26 240.285 5.676 229.728 5.676 155.742 L 5.676 96.491 C 5.676 22.504 16.26 11.947 90.315 11.947 L 165.685 11.947 Z" vector-effect="non-scaling-stroke"/>
 </g>
</svg>
